X: 536
T: Lady Agnes Percy's Hornpipe
R: triple hornpipe
B: "Preston's Twenty Four Country Dances for the Year 1804", Tho. Preston, ed. p.228
F: http://imslp.org/wiki/24_Country_Dances_for_the_Year_1804_(Preston_(publisher),_Thomas)
N: The 2nd strain has initial repeat but no final repeat.
M: 6/4
L: 1/8
K: Cm
EF |\
GFEDD2 G2E2c2 | G2e2d2 g2f2c2 | G2e2d2 g2f2c2 | c3dfe dcg2G2 | F2E2D2 G2C2 ::
G2 |\
c3dfe dcg2c2 | d2b2B2 d2f2d2 | c3dcd ecg2c2 | G2c2-c2 G2E2C2 |
c3dfe dcg2c2 | d2b2B2 d2f2d2 | cdecd2 f2e2g2 | F2E2D2 G2C2 |]
% - - - - - - - - - - - - - - - - - - - - - - - - -
%%begintext align
%% 1st Lady set to the 2d Gentn & turn the 3d Gentn
%% with both hands, 1st Gentn do the same, lead
%% down the middle up again & poussette with the
%% 2d Cu.
%%endtext
